icons/mobile/24/svg/report-24.svg

<svg width="24" height="24" viewBox="0 0 24 24" fill="none" xmlns="http://www.w3.org/2000/svg">
<path d="M12 13C12.5523 13 13 13.4477 13 14C13 14.5523 12.5523 15 12 15C11.4477 15 11 14.5523 11 14C11 13.4477 11.4477 13 12 13Z" fill="black"/>
<path d="M12 7C12.483 7 12.875 7.392 12.875 7.875V10.625C12.875 11.108 12.483 11.5 12 11.5C11.517 11.5 11.125 11.108 11.125 10.625V7.875C11.125 7.392 11.517 7 12 7Z" fill="black"/>
<path fill-rule="evenodd" clip-rule="evenodd" d="M12 3.50098C14.1308 3.50098 16.5764 3.62048 19.2627 3.9668C20.8183 4.16886 22 5.49513 22 7.07324V14.9316C22 16.3926 20.9926 17.6608 19.5791 17.9805L19.292 18.0312C18.8718 18.0861 18.4408 18.1348 18 18.1816V19.873C17.9999 21.6756 15.9132 22.6341 14.5498 21.5352L14.4199 21.4219L11.3047 18.4961C9.34333 18.4724 7.13623 18.3458 4.7373 18.0361C3.18172 17.8341 2 16.5078 2 14.9297V7.07129C2.00001 5.51323 3.1458 4.17455 4.70801 3.97168C6.8742 3.69139 9.32072 3.50098 12 3.50098ZM12 5.25098C9.40348 5.25098 7.03329 5.43535 4.93359 5.70703C4.26008 5.79438 3.75001 6.37554 3.75 7.07129V14.9297C3.75 15.6196 4.2695 16.2099 4.96191 16.2998C7.42463 16.6177 9.6778 16.7392 11.6611 16.751C11.8819 16.7523 12.094 16.8372 12.2549 16.9883L15.6172 20.1455C15.8569 20.3705 16.2499 20.2001 16.25 19.873V17.3916C16.2502 16.9395 16.5947 16.5619 17.0449 16.5205C17.7432 16.4566 18.4172 16.3805 19.0654 16.2959C19.739 16.2085 20.25 15.6274 20.25 14.9316V7.07324C20.25 6.38338 19.7305 5.79306 19.0381 5.70312C16.4349 5.36757 14.0649 5.25098 12 5.25098Z" fill="black"/>
</svg>

<!-- This Source Code Form is subject to the terms of the Mozilla Public
   - License, v. 2.0. If a copy of the MPL was not distributed with this
   - file, You can obtain one at http://mozilla.org/MPL/2.0/. -->
<svg xmlns="http://www.w3.org/2000/svg" width="24" height="24" fill="none" viewBox="0 0 24 24">
    <path fill="#000" d="M12 13a1 1 0 1 1 0 2 1 1 0 0 1 0-2m0-6c.483 0 .875.392.875.875v2.75a.875.875 0 0 1-1.75 0v-2.75c0-.483.392-.875.875-.875" />
    <path fill="#000" fill-rule="evenodd" d="M12 3.501c2.13 0 4.576.12 7.263.466A3.14 3.14 0 0 1 22 7.073v7.859a3.12 3.12 0 0 1-2.42 3.048l-.288.051q-.63.082-1.292.15v1.692c0 1.803-2.087 2.761-3.45 1.662l-.13-.113-3.115-2.926a57 57 0 0 1-6.568-.46A3.14 3.14 0 0 1 2 14.93V7.07a3.12 3.12 0 0 1 2.708-3.1A57 57 0 0 1 12 3.502m0 1.75c-2.597 0-4.967.184-7.066.456A1.37 1.37 0 0 0 3.75 7.071v7.859c0 .69.52 1.28 1.212 1.37 2.463.318 4.716.44 6.7.451.22.001.432.086.593.237l3.362 3.157c.24.226.633.055.633-.272v-2.481c0-.453.345-.83.795-.872q1.047-.096 2.02-.224a1.37 1.37 0 0 0 1.185-1.364V7.073c0-.69-.52-1.28-1.212-1.37A55 55 0 0 0 12 5.251" clip-rule="evenodd" />
</svg>
